X: 1
T:Jackson's Morning Brush -- Jig
M:6/8
L:1/8
R:jig
B:Ryan's Mammoth Collection
N:86 446
Z:Contributed by Ray Davies,  ray:davies99.freeserve.co.uk
K:D
uB|\
AGF EFD | DFA AFA | BA(B d).e.f | gfg e2B |
AGF EFD | DFA AFA | BA(B d).e.g | fec d2 H:|
|:ug|\
fed faf | ede fdB | AFA def | gfg eag |
fed faf | ede fdB | AFA deg | fec d2:|
|:ug|\
fdf ece | dBd AFA | AFA def | gfg eag |
fdf ece | dBd AFA | AFA deg | fec d2 "_D.C.":|
